dist/images/icons/icon-question.svg

<svg width="27" height="21" viewBox="0 0 27 21" fill="none" xmlns="http://www.w3.org/2000/svg">
<path d="M10.2934 0.815308C4.82214 0.815308 0.386661 4.36895 0.386661 8.7549C0.386661 11.1189 1.67717 13.2402 3.72256 14.6948C3.28696 15.658 2.42684 16.8878 0.647629 18.5543C0.357013 18.8263 -0.00593153 19.2198 1.16891 18.9393C3.13644 18.4694 5.23591 17.2712 6.83658 16.1969C7.91303 16.5184 9.07713 16.6945 10.2937 16.6945C15.7646 16.6945 20.2 13.1409 20.2 8.75529C20.2 4.36934 15.7642 0.815308 10.2934 0.815308Z" fill="white"/>
<path d="M26.5946 20.2159C25.0259 18.849 24.8021 18.0772 24.7258 17.516C25.82 16.635 26.4892 15.4566 26.4892 14.1612C26.4892 11.7506 24.1743 9.74547 21.1125 9.30945C20.8589 12.7578 18.1648 15.6137 14.3206 16.867C15.5045 18.2123 17.5444 19.1015 19.8637 19.1015C20.8625 19.1015 21.8085 18.9358 22.6581 18.6409C23.5526 19.2776 25.0831 20.2546 26.4447 20.5566C27.0678 20.6951 26.7486 20.35 26.5946 20.2159Z" fill="white"/>
</svg>

<svg width="27" height="21" fill="none" xmlns="http://www.w3.org/2000/svg"><path d="M10.293.815C4.823.815.387 4.37.387 8.755c0 2.364 1.29 4.485 3.336 5.94-.436.963-1.296 2.193-3.075 3.86-.291.271-.654.665.52.384 1.968-.47 4.068-1.668 5.669-2.742 1.076.321 2.24.498 3.457.498 5.47 0 9.906-3.554 9.906-7.94 0-4.386-4.436-7.94-9.907-7.94z" fill="#fff"/><path d="M26.595 20.216c-1.57-1.367-1.793-2.139-1.87-2.7 1.095-.881 1.764-2.06 1.764-3.355 0-2.41-2.315-4.416-5.377-4.852-.253 3.449-2.947 6.305-6.791 7.558 1.184 1.345 3.223 2.235 5.543 2.235.998 0 1.944-.166 2.794-.461.895.637 2.425 1.614 3.787 1.916.623.138.304-.207.15-.341z" fill="#fff"/></svg>
